Newaita-dark/actions/24/folder-move.svg

<svg height="24" viewBox="0 0 24 24" width="24" xmlns="http://www.w3.org/2000/svg"><g fill="#e0e0e0"><path d="m10.34375 3.167969c-.839844 0-1.738281.046875-2.597656.476562-.84375.421875-1.476563 1.296875-1.699219 2.496094h-2.078125c-1.097656 0-1.984375.886719-1.984375 1.984375v3.96875h1.984375v-2.976562c0-.550782.441406-.992188.992188-.992188h1.085937c.222656 1.199219.855469 2.074219 1.699219 2.496094 1.058594.53125 2.175781.476562 3.167968.476562h8.929688v6.949219c0 .550781-.441406.992187-.992188.992187h-4.960937v1.488282c0 .183594-.046875.351562-.132813.5h6.085938c1.101562 0 1.988281-.886719 1.988281-1.988282v-8.800781c.007813-.085937.007813-.171875 0-.261719v-1.851562c0-1.097656-.886719-1.984375-1.988281-1.984375v2.980469h-8.929688c-.992187 0-1.855468-.050782-2.285156-.265625-.429687-.214844-.695312-.453125-.695312-1.722657 0-1.269531.265625-1.503906.695312-1.722656.429688-.214844 1.292969-.265625 2.285156-.265625.355469.003907.6875-.183593.867188-.488281.179688-.308594.179688-.691406 0-.996094-.179688-.308594-.511719-.496094-.867188-.492187-.183593 0-.375 0-.570312 0zm0 0"/><path d="m10.914062 3.164062v1.984376h7.9375c.550782 0 .992188.441406.992188.992187v6.945313c1.101562 0 1.988281-.882813 1.988281-1.984376v-5.953124c0-1.097657-.886719-1.984376-1.988281-1.984376zm0 0"/><path d="m6.449219 18.542969v-1.984375h4.949219c.273437 0 .496093.222656.496093.496094v.992187c0 .277344-.222656.496094-.496093.496094zm0 0"/><path d="m6.945312 14.078125v6.949219l-4.960937-3.476563zm0 0"/></g></svg>

<svg xmlns="http://www.w3.org/2000/svg" xmlns:xlink="http://www.w3.org/1999/xlink" width="24px" height="24px" viewBox="0 0 24 24" version="1.1">
<g id="surface1">
     <defs>
  <style id="current-color-scheme" type="text/css">
   .ColorScheme-Text { color:#eeeeee; } .ColorScheme-Highlight { color:#424242; }
  </style>
 </defs>
<path style="fill:currentColor" class="ColorScheme-Text" d="M 10.34375 3.167969 C 9.503906 3.167969 8.605469 3.214844 7.746094 3.644531 C 6.902344 4.066406 6.269531 4.941406 6.046875 6.140625 L 3.96875 6.140625 C 2.871094 6.140625 1.984375 7.027344 1.984375 8.125 L 1.984375 12.09375 L 3.96875 12.09375 L 3.96875 9.117188 C 3.96875 8.566406 4.410156 8.125 4.960938 8.125 L 6.046875 8.125 C 6.269531 9.324219 6.902344 10.199219 7.746094 10.621094 C 8.804688 11.152344 9.921875 11.097656 10.914062 11.097656 L 19.84375 11.097656 L 19.84375 18.046875 C 19.84375 18.597656 19.402344 19.039062 18.851562 19.039062 L 13.890625 19.039062 L 13.890625 20.527344 C 13.890625 20.710938 13.84375 20.878906 13.757812 21.027344 L 19.84375 21.027344 C 20.945312 21.027344 21.832031 20.140625 21.832031 19.039062 L 21.832031 10.238281 C 21.839844 10.152344 21.839844 10.066406 21.832031 9.976562 L 21.832031 8.125 C 21.832031 7.027344 20.945312 6.140625 19.84375 6.140625 L 19.84375 9.121094 L 10.914062 9.121094 C 9.921875 9.121094 9.058594 9.070312 8.628906 8.855469 C 8.199219 8.640625 7.933594 8.402344 7.933594 7.132812 C 7.933594 5.863281 8.199219 5.628906 8.628906 5.410156 C 9.058594 5.195312 9.921875 5.144531 10.914062 5.144531 C 11.269531 5.148438 11.601562 4.960938 11.78125 4.65625 C 11.960938 4.347656 11.960938 3.964844 11.78125 3.660156 C 11.601562 3.351562 11.269531 3.164062 10.914062 3.167969 C 10.730469 3.167969 10.539062 3.167969 10.34375 3.167969 Z M 10.34375 3.167969 "/>
     <defs>
  <style id="current-color-scheme" type="text/css">
   .ColorScheme-Text { color:#eeeeee; } .ColorScheme-Highlight { color:#424242; }
  </style>
 </defs>
<path style="fill:currentColor" class="ColorScheme-Text" d="M 10.914062 3.164062 L 10.914062 5.148438 L 18.851562 5.148438 C 19.402344 5.148438 19.84375 5.589844 19.84375 6.140625 L 19.84375 13.085938 C 20.945312 13.085938 21.832031 12.203125 21.832031 11.101562 L 21.832031 5.148438 C 21.832031 4.050781 20.945312 3.164062 19.84375 3.164062 Z M 10.914062 3.164062 "/>
     <defs>
  <style id="current-color-scheme" type="text/css">
   .ColorScheme-Text { color:#eeeeee; } .ColorScheme-Highlight { color:#424242; }
  </style>
 </defs>
<path style="fill:currentColor" class="ColorScheme-Text" d="M 6.449219 18.542969 L 6.449219 16.558594 L 11.398438 16.558594 C 11.671875 16.558594 11.894531 16.78125 11.894531 17.054688 L 11.894531 18.046875 C 11.894531 18.324219 11.671875 18.542969 11.398438 18.542969 Z M 6.449219 18.542969 "/>
     <defs>
  <style id="current-color-scheme" type="text/css">
   .ColorScheme-Text { color:#eeeeee; } .ColorScheme-Highlight { color:#424242; }
  </style>
 </defs>
<path style="fill:currentColor" class="ColorScheme-Text" d="M 6.945312 14.078125 L 6.945312 21.027344 L 1.984375 17.550781 Z M 6.945312 14.078125 "/>
</g>
</svg>
